X: 118
T: No_53_Song_of_the_Badger_Medicine.krn
N: Derived from No_53_Song_of_the_Badger_Medicine.krn
%%abc-version 2.0
%%abcx-abcm2ps-target-version 5.9.1 (29 Sep 2008)
%%abc-creator hum2abc beta
%%abcx-conversion-date 2019/03/15 08:37:56
%%humdrum-veritas 1346471025
%%humdrum-veritas-data 373633094
%%linebreak <none>
%%barnumbers 0
L: 1/8
M: 3/4
K: Gb clef=bass
A,A, [I:setbarnb 1]| 
(CA,) A,A, A,G,3//A,// ||  
[M:2/4]A,4- | 
A,E, A,A, | 
(A,G,) G,G, | 
(G,E,) E,D, ||  
[M:3/4](E,D,) D,D, D,D, | 
D,2z2E,3/G,/ | 
G,2G,G, G,E,3//G,// ||  
[M:2/4]G,E, G,G, ||  
[M:3/4]E,D, D,D, D, z ||  
[M:2/4]E,2G,/E,/D, ||  
[M:3/4]D,2D,D, D,3/C,/ | 
D,2D,D, D,D, | 
D,D, D,D,D,2 |]  



